X: 22473
T: Lady Bermingham
R: hornpipe
M: 4/4
K: Gmajor
|:B2B/A3/2 FEFA|B2e2e2d/B3/2|bagb agfa|gfeg f2B z|
G/F3/2G/E3/2 e/d3/2e/B3/2|A/G3/2A/F3/2f2ge|dBAG B2d/B/A|G2E2E2z2:|
|:B3/2A/GB A3/2G/FA|GFEG D2 B2|BEBE DFDF|G2G/F/E B2B2|
B2e2efed|B2Bc BAGF|E2e2efed|e2 Tf2g3f|
ed^cd dcdf|edef g2fe|dBAG B2d/B/A|GF/G/ E2E2z2:|
M:6/8
K:G
|:E2e G2e|d2B A2z|ded dBG|e3 Tf3|
b3 gee|a3 fdd|gfe g/a/bB|e3e3||
|:EGB EGB|FAd FAd|GBg GBg|f3e3|
d2g B2e|d2g B2e|d2B AFD|E3E3||

